X:52
T:My Mind Will Never Be Easy
R:slip jig
H:Originally (?) Scottish: "Woo'd And Merrit An' A'"
H:See also "The Exile's Jig", #12
B:A version in Roche collection (#266) as "The New Widow Well Married"
D:Michael McGoldrick: Morning Rory
D:Dervish: Playing with Fire
Z:id:hn-slipjig-52
M:9/8
K:G
gf|:edB BAB G2A|Bdd deB dgf|edB BAB G2A|1 Bde efd egf:|2 Bde efd edB||
|:def g2g fed|Bdd deB d2B|1 def g2g fed|Bde efd edB:|2 deg age dBA|Bee efd e||
P:variations
gf|:edB B2A ~G3|~B3 deB dgf|edB B2A G2A|1 ~B3 efd egf:|2 Bee efd edB||
|:def gaf g2d|Bdd deB d2B|1 def ~g3 fed|B2e efd edB:|2 deg age dBA|Bde efd e||

